public/svg/instagram.svg

<svg width="52" height="52" viewBox="0 0 52 52" fill="none" xmlns="http://www.w3.org/2000/svg">
<g opacity="0.6">
<g clip-path="url(#clip0_672_1502)">
<path d="M46.7596 17.4297C46.6622 15.2194 46.3047 13.6998 45.7927 12.383C45.2645 10.9853 44.4518 9.73392 43.3871 8.69365C42.3468 7.63719 41.0872 6.81628 39.7057 6.29631C38.3813 5.78427 36.8697 5.42683 34.6593 5.32937C32.4324 5.22366 31.7255 5.19922 26.0775 5.19922C20.4295 5.19922 19.7226 5.22366 17.5039 5.32112C15.2936 5.41857 13.774 5.77633 12.4575 6.28805C11.0595 6.81628 9.80813 7.62894 8.76787 8.69365C7.71141 9.73392 6.89082 10.9935 6.37053 12.3751C5.85849 13.6998 5.50105 15.2111 5.40359 17.4215C5.29788 19.6484 5.27344 20.3553 5.27344 26.0033C5.27344 31.6513 5.29788 32.3582 5.39534 34.5768C5.49279 36.7872 5.85055 38.3068 6.36259 39.6236C6.89082 41.0213 7.71141 42.2726 8.76787 43.3129C9.80813 44.3694 11.0678 45.1903 12.4493 45.7103C13.774 46.2223 15.2853 46.5797 17.496 46.6772C19.7143 46.775 20.4216 46.7991 26.0696 46.7991C31.7175 46.7991 32.4245 46.775 34.6431 46.6772C36.8535 46.5797 38.3731 46.2223 39.6895 45.7103C42.4853 44.6294 44.6956 42.419 45.7765 39.6236C46.2882 38.2989 46.646 36.7872 46.7435 34.5768C46.8409 32.3582 46.8654 31.6513 46.8654 26.0033C46.8654 20.3553 46.8571 19.6484 46.7596 17.4297ZM43.0135 34.4143C42.924 36.4459 42.5827 37.543 42.2983 38.2744C41.5993 40.0867 40.1609 41.5251 38.3486 42.2241C37.6172 42.5085 36.5122 42.8498 34.4885 42.939C32.2943 43.0367 31.6363 43.0609 26.0857 43.0609C20.5352 43.0609 19.8689 43.0367 17.6827 42.939C15.651 42.8498 14.5539 42.5085 13.8225 42.2241C12.9207 41.8908 12.0998 41.3625 11.4335 40.6718C10.7427 39.9972 10.2145 39.1845 9.88115 38.2827C9.59672 37.5513 9.25546 36.4459 9.16626 34.4226C9.06849 32.2284 9.04436 31.57 9.04436 26.0195C9.04436 20.4689 9.06849 19.8026 9.16626 17.6167C9.25546 15.5851 9.59672 14.488 9.88115 13.7566C10.2145 12.8544 10.7427 12.0338 11.4417 11.3672C12.116 10.6764 12.9286 10.1482 13.8308 9.81518C14.5622 9.53075 15.6675 9.1895 17.6909 9.09998C19.8851 9.00253 20.5435 8.97808 26.0937 8.97808C31.6525 8.97808 32.3105 9.00253 34.4968 9.09998C36.5284 9.1895 37.6255 9.53075 38.3569 9.81518C39.2587 10.1482 40.0797 10.6764 40.746 11.3672C41.4367 12.0417 41.965 12.8544 42.2983 13.7566C42.5827 14.488 42.924 15.593 43.0135 17.6167C43.1109 19.8109 43.1354 20.4689 43.1354 26.0195C43.1354 31.57 43.1109 32.2201 43.0135 34.4143Z" fill="white"/>
<path d="M26.0771 15.3164C20.1774 15.3164 15.3906 20.1028 15.3906 26.0029C15.3906 31.9029 20.1774 36.6893 26.0771 36.6893C31.9771 36.6893 36.7635 31.9029 36.7635 26.0029C36.7635 20.1028 31.9771 15.3164 26.0771 15.3164ZM26.0771 32.9349C22.2497 32.9349 19.145 29.8306 19.145 26.0029C19.145 22.1751 22.2497 19.0708 26.0771 19.0708C29.9048 19.0708 33.0091 22.1751 33.0091 26.0029C33.0091 29.8306 29.9048 32.9349 26.0771 32.9349Z" fill="white"/>
<path d="M39.6813 14.8952C39.6813 16.2729 38.5642 17.39 37.1862 17.39C35.8085 17.39 34.6914 16.2729 34.6914 14.8952C34.6914 13.5172 35.8085 12.4004 37.1862 12.4004C38.5642 12.4004 39.6813 13.5172 39.6813 14.8952Z" fill="white"/>
</g>
</g>
<defs>
<clipPath id="clip0_672_1502">
<rect width="41.6" height="41.6" fill="white" transform="translate(5.19922 5.19922)"/>
</clipPath>
</defs>
</svg>

<svg width="52" height="52" fill="none" xmlns="http://www.w3.org/2000/svg"><g clip-path="url(#a)" fill="#fff"><path d="M46.76 17.43c-.098-2.21-.455-3.73-.967-5.047a10.152 10.152 0 0 0-2.406-3.69 10.238 10.238 0 0 0-3.681-2.397c-1.325-.512-2.836-.87-5.047-.967-2.227-.105-2.933-.13-8.581-.13s-6.355.025-8.574.122c-2.21.098-3.73.455-5.047.967a10.15 10.15 0 0 0-3.69 2.406 10.242 10.242 0 0 0-2.396 3.681c-.513 1.325-.87 2.836-.967 5.047-.106 2.226-.13 2.933-.13 8.581s.024 6.355.121 8.574c.098 2.21.456 3.73.968 5.047a10.258 10.258 0 0 0 2.405 3.689 10.238 10.238 0 0 0 3.681 2.397c1.325.512 2.836.87 5.047.967 2.218.098 2.926.122 8.574.122s6.355-.024 8.573-.122c2.21-.097 3.73-.455 5.047-.967a10.64 10.64 0 0 0 6.087-6.086c.511-1.325.869-2.837.966-5.047.098-2.219.122-2.926.122-8.574s-.008-6.355-.105-8.573Zm-3.746 16.984c-.09 2.032-.431 3.129-.716 3.86a6.9 6.9 0 0 1-3.95 3.95c-.73.285-1.836.626-3.86.715-2.194.098-2.852.122-8.402.122-5.55 0-6.217-.024-8.403-.122-2.032-.09-3.13-.43-3.86-.715a6.402 6.402 0 0 1-2.39-1.552 6.468 6.468 0 0 1-1.552-2.39c-.284-.73-.626-1.836-.715-3.86-.098-2.194-.122-2.852-.122-8.402 0-5.551.024-6.217.122-8.403.09-2.032.43-3.129.715-3.86a6.323 6.323 0 0 1 1.56-2.39 6.458 6.458 0 0 1 2.39-1.552c.731-.284 1.837-.625 3.86-.715 2.194-.097 2.853-.122 8.403-.122 5.558 0 6.216.025 8.403.122 2.031.09 3.129.43 3.86.715a6.397 6.397 0 0 1 2.389 1.552 6.466 6.466 0 0 1 1.552 2.39c.285.731.626 1.836.715 3.86.098 2.194.122 2.852.122 8.402 0 5.551-.024 6.201-.121 8.395Z"/><path d="M26.077 15.316c-5.9 0-10.686 4.787-10.686 10.687 0 5.9 4.786 10.686 10.686 10.686s10.686-4.786 10.686-10.686-4.786-10.687-10.686-10.687Zm0 17.619a6.933 6.933 0 0 1 0-13.864 6.933 6.933 0 0 1 0 13.864ZM39.681 14.895a2.495 2.495 0 1 1-4.99 0 2.495 2.495 0 0 1 4.99 0Z"/></g><defs><clipPath id="a"><path fill="#fff" transform="translate(5.2 5.2)" d="M0 0h41.6v41.6H0z"/></clipPath></defs></svg>
